64x64/apps/org.pencil2d.Pencil2D.svg

<svg xmlns="http://www.w3.org/2000/svg" width="64" height="64" version="1.1">
 <circle style="opacity:0.2" cx="33" cy="33" r="23"/>
 <circle style="fill:#005cc0" cx="33" cy="32" r="23"/>
 <path style="opacity:0.1;fill:#f4f4f7" d="M 33 9 A 23 23 0 0 0 10 32 A 23 23 0 0 0 10.017578 32.484375 A 23 23 0 0 1 33 10 A 23 23 0 0 1 55.974609 32.496094 A 23 23 0 0 0 56 32 A 23 23 0 0 0 33 9 z"/>
 <circle style="opacity:0.2" cx="33" cy="33" r="19"/>
 <circle style="fill:#0179ff" cx="33" cy="32" r="19"/>
 <path style="opacity:0.2;fill:#f4f4f7" d="M 33 13 A 19 19 0 0 0 14 32 A 19 19 0 0 0 14.017578 32.511719 A 19 19 0 0 1 33 14 A 19 19 0 0 1 51.976562 32.517578 A 19 19 0 0 0 52 32 A 19 19 0 0 0 33 13 z"/>
 <circle style="fill:#419cff" cx="33" cy="32" r="15"/>
 <path style="opacity:0.2;fill:#f4f4f7" d="M 33 17 A 15 15 0 0 0 18 32 A 15 15 0 0 0 18.017578 32.474609 A 15 15 0 0 1 33 18 A 15 15 0 0 1 47.976562 32.507812 A 15 15 0 0 0 48 32 A 15 15 0 0 0 33 17 z"/>
 <path style="opacity:0.1" d="m 49.085938,12.003899 c -2.325204,-0.0591 -3.894532,0.648437 -3.894532,0.648437 L 15.550781,29.984368 7.9296876,41.312492 c 0.050238,0.0134 0.087008,0.0332 0.136718,0.04688 -2.4105422,3.80544 -4.708018,7.625966 -5.6679686,9.796874 -0.7368173,1.880418 -0.5092121,2.513972 1.1757812,2.703126 10.4848468,0.407482 11.6527568,-0.20028 11.6523438,-0.19922 L 28.6875,52.99218 57.753906,35.996086 c 0,0 7.765358,-5.736174 2.29297,-16.824219 -3.7357,-5.745791 -7.971388,-7.091981 -10.960938,-7.167968 z M 8.6523438,41.558586 c 0.6302016,0.19578 1.2571466,0.39415 1.7968752,0.632812 0.356135,0.15748 0.693869,0.324372 1.011719,0.5 0.955832,0.528148 1.741654,1.13558 2.367187,1.820312 0.209195,0.228994 0.400181,0.46528 0.574219,0.710938 0.173028,0.244234 0.329591,0.497522 0.46875,0.757812 0.13765,0.25747 0.261821,0.520194 0.367187,0.79297 -0.105542,-0.272452 -0.229403,-0.535802 -0.367187,-0.79297 -0.13972,-0.260778 -0.295004,-0.513162 -0.46875,-0.757812 C 14.228597,44.978 14.036777,44.739812 13.828125,44.51171 13.20217,43.827406 12.416852,43.219286 11.460938,42.691398 c -0.318639,-0.175962 -0.654662,-0.34225 -1.011719,-0.5 C 9.9096902,41.953032 9.2821112,41.754176 8.6523438,41.558586 Z m 6.6640622,5.45703 c 0.07116,0.20488 0.141268,0.41201 0.195312,0.625 0.147674,0.581976 0.2331,1.191766 0.257813,1.832032 -0.02519,-0.639368 -0.109826,-1.250876 -0.257813,-1.832032 -0.05425,-0.213024 -0.123932,-0.420098 -0.195312,-0.625 z m 0.421875,3.113282 c -0.0095,0.44668 -0.008,0.88767 -0.07031,1.359376 0.06228,-0.472362 0.06105,-0.91215 0.07031,-1.359376 z"/>
 <path style="fill:#bb7739" d="M 39.353516 15.064453 L 15.548828 28.984375 L 28.685547 51.990234 L 54.203125 37.072266 C 54.203194 37.071614 54.203056 37.070964 54.203125 37.070312 C 55.33194 26.459893 51.49468 16.807599 39.353516 15.064453 z"/>
 <path style="fill:#4f4f4f" d="M 15.225738,52.6616 C 16.839574,46.664196 15.053864,42.278554 8.069359,40.357338 5.6577218,44.16435 3.3585648,47.98457 2.3982154,50.15638 c -0.7368172,1.880418 -0.5096267,2.513564 1.1753666,2.702716 10.484847,0.407484 11.652569,-0.19856 11.652156,-0.1975 z"/>
 <path style="fill:#e4af64" d="M 7.9283212,40.313088 15.548964,28.983742 c 13.422608,0.68786 18.276268,13.53753 13.137394,23.006918 L 15.226151,52.660548 C 16.851307,46.621076 15.035445,42.212876 7.9283212,40.313088 Z"/>
 <path style="fill:#e15c7d" d="m 49.08698,11.003504 c -2.325204,-0.0591 -3.897408,0.649301 -3.897408,0.649301 l -5.836764,3.411538 c 12.14191,1.743253 15.979182,11.397423 14.849688,22.008611 l 3.550142,-2.077762 c 0,0 7.767026,-5.736978 2.294636,-16.825023 -3.7357,-5.745792 -7.970744,-7.090677 -10.960294,-7.166665 z"/>
 <path style="fill:#b2bfs9" d="m 39.352808,15.064343 -8.94347,5.229582 c 14.16572,-0.110502 17.99926,14.437201 12.910332,23.139479 l 10.882826,-6.36045 c 9.6e-5,-9.02e-4 -9.6e-5,-0.0018 0,-0.0028 1.128552,-10.610124 -2.70881,-20.2628 -14.849688,-22.005906 z"/>
 <path style="opacity:0.3" d="m 38.043146,15.828908 -1.920278,1.123828 a 16.363636,16.8 0 0 1 14.267578,16.64414 16.363636,16.8 0 0 1 -1.267756,6.444922 l 1.864346,-1.091016 a 17.727272,18.2 0 0 0 0.81765,-5.405858 17.727272,18.2 0 0 0 -13.76154,-17.716016 z m -2.988282,1.75 -1.904298,1.112891 a 16.363636,16.8 0 0 1 14.13441,16.622265 16.363636,16.8 0 0 1 -1.313032,6.567968 L 47.83629,40.791016 A 17.727272,18.2 0 0 0 48.699218,35.26211 17.727272,18.2 0 0 0 35.054864,17.578908 Z"/>
 <path style="opacity:0.1;fill:#f4f4f7" d="M 49.085938 11.003906 C 46.760734 10.944806 45.191406 11.652344 45.191406 11.652344 L 39.351562 15.0625 C 39.802998 15.127314 40.238937 15.207186 40.664062 15.296875 L 45.191406 12.652344 C 45.191406 12.652344 46.760734 11.944806 49.085938 12.003906 C 52.075487 12.079894 56.311175 13.426083 60.046875 19.171875 C 61.360175 21.83286 61.901581 24.175824 61.978516 26.212891 C 62.063348 23.955397 61.580845 21.279979 60.046875 18.171875 C 56.311175 12.426083 52.075487 11.079894 49.085938 11.003906 z M 54.363281 34.660156 C 54.336521 35.458174 54.289605 36.261863 54.203125 37.074219 L 54.271484 37.033203 C 54.302096 36.592682 54.344252 36.14949 54.359375 35.712891 C 54.358857 35.362698 54.37484 35.007427 54.363281 34.660156 z"/>
</svg>

<svg xmlns="http://www.w3.org/2000/svg" width="64" height="64"><circle style="opacity:.2" cx="33" cy="33" r="23"/><circle style="fill:#005cc0" cx="33" cy="32" r="23"/><path style="opacity:.1;fill:#f4f4f7" d="M33 9a23 23 0 0 0-23 23 23 23 0 0 0 .018.484A23 23 0 0 1 33 10a23 23 0 0 1 22.975 22.496A23 23 0 0 0 56 32 23 23 0 0 0 33 9z"/><circle style="opacity:.2" cx="33" cy="33" r="19"/><circle style="fill:#0179ff" cx="33" cy="32" r="19"/><path style="opacity:.2;fill:#f4f4f7" d="M33 13a19 19 0 0 0-19 19 19 19 0 0 0 .018.512A19 19 0 0 1 33 14a19 19 0 0 1 18.977 18.518A19 19 0 0 0 52 32a19 19 0 0 0-19-19z"/><circle style="fill:#419cff" cx="33" cy="32" r="15"/><path style="opacity:.2;fill:#f4f4f7" d="M33 17a15 15 0 0 0-15 15 15 15 0 0 0 .018.475A15 15 0 0 1 33 18a15 15 0 0 1 14.977 14.508A15 15 0 0 0 48 32a15 15 0 0 0-15-15z"/><path style="opacity:.1" d="M49.086 12.004c-2.325-.06-3.895.648-3.895.648l-29.64 17.332L7.93 41.312c.05.014.087.034.136.047-2.41 3.806-4.708 7.626-5.668 9.797-.736 1.88-.509 2.514 1.176 2.703 10.485.408 11.653-.2 11.653-.199l13.46-.668 29.067-16.996s7.765-5.736 2.293-16.824c-3.736-5.746-7.972-7.092-10.961-7.168zM8.652 41.559c.63.195 1.257.394 1.797.632.356.158.694.325 1.012.5.956.529 1.742 1.136 2.367 1.82a7.112 7.112 0 0 1 1.043 1.469 7.08 7.08 0 0 0-1.043-1.468c-.626-.685-1.411-1.293-2.367-1.82a12.732 12.732 0 0 0-1.012-.5c-.54-.239-1.167-.438-1.797-.633zm6.664 5.457a7.617 7.617 0 0 0 0 0zm.422 3.113c-.01.447-.008.888-.07 1.36.062-.473.061-.913.07-1.36z"/><path style="fill:#bb7739" d="m39.354 15.064-23.805 13.92L28.686 51.99l25.517-14.918v-.002c1.129-10.61-2.708-20.262-14.85-22.006z"/><path style="fill:#4f4f4f" d="M15.226 52.662c1.614-5.998-.172-10.383-7.157-12.305-2.411 3.807-4.71 7.628-5.67 9.8-.738 1.88-.51 2.513 1.175 2.702 10.484.408 11.652-.198 11.652-.197z"/><path style="fill:#e4af64" d="m7.928 40.313 7.621-11.33c13.423.689 18.276 13.538 13.137 23.008l-13.46.67c1.625-6.04-.19-10.448-7.298-12.348z"/><path style="fill:#e15c7d" d="M49.087 11.004c-2.325-.06-3.897.649-3.897.649l-5.837 3.411c12.142 1.744 15.979 11.398 14.85 22.009l3.55-2.078s7.767-5.737 2.294-16.825c-3.735-5.746-7.97-7.09-10.96-7.166z"/><path style="fill:#b2bfs9" d="m39.353 15.064-8.944 5.23c14.166-.11 18 14.437 12.91 23.14l10.883-6.361v-.003c1.129-10.61-2.708-20.263-14.85-22.006z"/><path style="opacity:.3" d="m38.043 15.829-1.92 1.124A16.364 16.8 0 0 1 50.39 33.597a16.364 16.8 0 0 1-1.267 6.445l1.864-1.091a17.727 18.2 0 0 0 .818-5.406 17.727 18.2 0 0 0-13.762-17.716zm-2.988 1.75-1.904 1.113a16.364 16.8 0 0 1 14.134 16.622 16.364 16.8 0 0 1-1.313 6.568l1.864-1.091a17.727 18.2 0 0 0 .863-5.529A17.727 18.2 0 0 0 35.055 17.58z"/><path style="opacity:.1;fill:#f4f4f7" d="M49.086 11.004c-2.325-.06-3.895.648-3.895.648l-5.84 3.41c.452.065.888.145 1.313.235l4.527-2.645s1.57-.707 3.895-.648c2.99.076 7.225 1.422 10.96 7.168 1.314 2.66 1.856 5.004 1.933 7.04.084-2.257-.398-4.932-1.932-8.04-3.736-5.746-7.972-7.092-10.961-7.168zm5.277 23.656a33.283 33.283 0 0 1-.16 2.414l.068-.04c.031-.441.073-.885.088-1.321 0-.35.016-.706.004-1.053z"/></svg>
